X:1
T:Are Ye Able?
T:Are Ye Able?
T:Harry Silvernale Mason, 1924
T:Earl Bowman Marlatt, 1926
C:Harry Silvernale Mason, 1924
%%score ( 1 2 ) ( 3 4 )
L:1/8
M:4/4
K:Ab
V:1 treble 
V:2 treble 
V:3 bass 
V:4 bass 
V:1
 EE | [CE]2 [A,C]2 [EA]3 [EG] | [EG]2 [DF]4 DD | [B,D]2 B,2 [DG]3 [DF] | [CE]6 [CE][CE] | %5
w: 1.~“Are ye|a- ble,” said the|Mas- ter, “To be|cru- ci- fied with|Me?” “Yea,” the|
w: 2.~Are ye|a- ble to re-|mem- ber, When a|thief lifts up his|eyes, That his|
w: 3.~Are ye|a- ble when the|shad- ows Close a-|round you with the|sod, To be-|
w: 4.~Are ye|a- ble? Still the|Mas- ter Whis- pers|down e- tern- i-|ty, And he-|
 [CE]2 C2 [EA]3 [=EG] | [=EG]2 F4 [DF][DF] | [=DF]2 [DF]2 [EG]2 [DA]2 | [DB]8 || %9
w: stur- dy dream- ers|an- swered, “To the|death we fol- low|Thee.”|
w: par- doned soul is|wor- thy Of a|place in par- a-|dise?|
w: lieve that spi- rit|tr- iumphs, To com-|mend your soul to|God?|
w: ro- ic spir- its|an- swer, Now as|then in Gal- i-|lee.|
"^Refrain" [Ec]4 [=Ec]3 [Ec] | [Fc]2 [Fc]4 [_Gc]2 | [Fd]4 [FA]2 [FB]2 | [Ec]8 | E4 [DF]2 [EG]2 | %14
w: |||||
w: Lord, we are|a- ble. Our|spir- its are|Thine.|Re- mold them,|
w: |||||
w: |||||
 [EA]4 [Ec]4 | [EB]4 [=Dc]2 [DB]2 | [EB]8 | [Ec]4 [=Ec]3 [Ec] | [Fc]2 [Fc]4 [_Gc]2 | %19
w: |||||
w: make us,|like Thee, di-|vine.|Thy guid- ing|ra- diance a-|
w: |||||
w: |||||
 [Fd]4 [FA]2 [FB]2 | [=Ec]6 [Ec]2 | [FB]4 [FA]2 [DF]2 | [CE]4 [Fd]4 | [Ec]2 [FB]2 [EA]2 [DG]2 | %24
w: |||||
w: bove us shall|be A|bea- con to|God, to|love and loy- al-|
w: |||||
w: |||||
 [CA]6 |] %25
w: |
w: ty.|
w: |
w: |
V:2
 EE | x8 | x6 DD | x8 | x8 | x8 | x8 | x8 | x8 || x8 | x8 | x8 | x8 | E4 x4 | x8 | x8 | x8 | x8 | %18
 x8 | x8 | x8 | x8 | x8 | x8 | x6 |] %25
V:3
 E,E, | [A,,A,]2 [A,,E,]2 [C,A,]3 [A,,A,] | [D,A,]2 [D,A,]4 [B,,B,][B,,B,] | %3
 [E,G,]2 [E,G,]2 [E,B,]3 [E,G,] | [A,,A,]6 [A,,A,][A,,A,] | [A,,A,]2 [A,,E,]2 [C,A,]3 [C,B,] | %6
 [D,B,]2 [D,A,]4 [D,A,][D,A,] | [B,,B,]2 [B,,B,]2 [G,B,]2 [F,A,]2 | [E,G,]8 || %9
 [A,,A,]4 [C,G,]3 [C,G,] | [F,A,]2 [F,A,]4 [E,A,]2 | [D,A,]4 [D,D]2 [D,A,]2 | [A,,A,]8 | %13
 [G,B,]4 [E,B,]2 [D,B,]2 | [C,A,]4 [A,,A,]4 | [B,,G,]4 [B,,F,]2 [B,,A,]2 | [E,G,]8 | %17
 [A,,A,]4 [C,G,]3 [C,G,] | [F,A,]2 [F,A,]4 [E,A,]2 | [D,D]4 [D,D]2 [D,F,]2 | [C,G,]6 [C,G,]2 | %21
 [D,D]4 [D,D]2 [D,A,]2 | [A,,A,]4 [B,,G,]4 | [C,A,]2 [D,D]2 [E,C]2 [E,B,]2 | [A,,A,]6 |] %25
V:4
 E,E, | x8 | x8 | x8 | x8 | x8 | x8 | x8 | x8 || x8 | x8 | x8 | x8 | x8 | x8 | x8 | x8 | x8 | x8 | %19
 x8 | x8 | x8 | x8 | x8 | x6 |] %25

